X: 28827
T: My Shenn Ayr
R: jig
M: 6/8
K: Adorian
E|ABG A2B|cBA BGE|ABG A2B|ced e2f|
gfe dcB|ABG FED|ABG A2B|cdB A3:|
|:a|abg a2g|ede a2a|abg a2g|eba b2a|
abg a2g|ede a2A|ABG A2B|cdB A3:|

